src/twitch.svg

<svg viewBox="0 0 16 16" fill="none" xmlns="http://www.w3.org/2000/svg"><path d="M2.84 1.72 2 3.87v8.82h3v1.59h1.69l1.59-1.59h2.44L14 9.41V1.72H2.84Zm1 1.12h9v6L11 10.72H8l-1.59 1.59v-1.59H3.88V2.84h-.04Zm6 5.44H11V5H9.88v3.28h-.04Zm-3 0H8V5H6.88v3.28h-.04Z" fill="#111111"/></svg>

<svg viewBox="0 0 16 16" fill="none" xmlns="http://www.w3.org/2000/svg"><path d="M2.84 1.72L2 3.87V12.69H5V14.28H6.69L8.28 12.69H10.72L14 9.41V1.72H2.84ZM3.84 2.84H12.84V8.84L11 10.72H8L6.41 12.31V10.72H3.88V2.84H3.84ZM9.84 8.28H11V5H9.88V8.28H9.84ZM6.84 8.28H8V5H6.88V8.28H6.84Z" fill="#111111"/></svg>
